X:321
M:C|
L:1/8
K:C
e/f/|g<c G>e f<dde/f/|g<c g>e c>eg>e|f>de>c d<D D>E|C>Ec>e G2G:|
E|C>Ec>E F<D D>E|C>Ec>E G>cEc|G>c E<c d<D D>E|C>Ec>E G2 G>E|

